static/assets/images/serp_no_results.svg

<?xml version="1.0" encoding="UTF-8"?>
<svg width="200px" height="264px" viewBox="0 0 200 264" version="1.1" xmlns="http://www.w3.org/2000/svg" xmlns:xlink="http://www.w3.org/1999/xlink">
    <!-- Generator: Sketch 51 (57462) - http://www.bohemiancoding.com/sketch -->
    <title>Group 11</title>
    <desc>Created with Sketch.</desc>
    <defs></defs>
    <g id="–-Landing-page-e-cerca-✓" stroke="none" stroke-width="1" fill="none" fill-rule="evenodd">
        <g id="it_dev_serp_no-result" transform="translate(-426.000000, -379.000000)">
            <rect fill="#FFFFFF" x="0" y="0" width="1400" height="1992"></rect>
            <g id="Group-11" transform="translate(426.000000, 379.000000)">
                <path d="M125.46486,115.291581 L125.46486,163.880686 L111.46486,171.880686 L111.46486,115.291581 L71.0185804,70.6277592 C69.5357108,68.9902632 69.6610603,66.4607072 71.2985563,64.9778377 C72.0341609,64.3116952 72.9911281,63.9427864 73.9835291,63.9427864 L162.946191,63.9427864 C165.15533,63.9427864 166.946191,65.7336474 166.946191,67.9427864 C166.946191,68.9351874 166.577282,69.8921547 165.91114,70.6277592 L125.46486,115.291581 Z" id="Combined-Shape" fill="#00C5CA" transform="translate(118.464845, 117.911736) scale(-1, 1) translate(-118.464845, -117.911736) "></path>
                <path d="M122.66896,106.725269 L145.361654,84.0325755" id="Line-3" stroke="#65DDE0" stroke-width="4" stroke-linecap="round" stroke-linejoin="round"></path>
                <g id="Group-8" transform="translate(0.519569, 93.225269)">
                    <path d="M13.0777337,0.551050293 L73.9721442,0.551049991 C78.3904222,0.551049991 81.9721442,4.13277199 81.9721442,8.55104999 C81.9721442,8.55105012 81.9721442,8.55105017 81.9721442,8.55105029 L81.9721413,69.4454756 C81.9721412,73.8637535 78.3904192,77.4454753 73.9721413,77.4454753 L54.5023275,77.4454756 C53.4414615,77.4454756 52.4240459,77.866903 51.6739004,78.6170485 L46.3533661,83.9375828 C44.7912689,85.4996799 42.258609,85.4996799 40.6965119,83.9375828 L35.3759776,78.6170485 C34.6258321,77.866903 33.6084164,77.4454756 32.5475505,77.4454756 L13.0777337,77.4454756 C8.65945574,77.4454756 5.07773374,73.8637536 5.07773374,69.4454756 L5.07773374,8.55105029 C5.07773374,4.13277229 8.65945574,0.551050293 13.0777337,0.551050293 Z" id="Rectangle-18" fill="#E6E9F2"></path>
                    <path d="M5.07773374,32.3301028 C7.83915749,32.3301028 10.0777337,30.2242887 10.0777337,27.6266354 C10.0777337,25.8948665 8.41106707,22.462689 5.07773374,17.3301028 C1.7444004,22.462689 0.0777337361,25.8948665 0.0777337361,27.6266354 C0.0777337361,30.2242887 2.31630999,32.3301028 5.07773374,32.3301028 Z" id="Oval-7" fill="#0066CC"></path>
                    <g id="Group-9" transform="translate(21.000000, 32.330103)" stroke="#004080" stroke-linecap="round" stroke-linejoin="round" stroke-width="3">
                        <path d="M0.988351703,0.71622748 L10.8742712,10.6021469" id="Path-2"></path>
                        <path d="M34.1756068,0.71622748 L44.0615263,10.6021469" id="Path-2-Copy"></path>
                        <path d="M0.988351703,0.71622748 L10.8742712,10.6021469" id="Path-2" transform="translate(5.931311, 5.659187) scale(-1, 1) translate(-5.931311, -5.659187) "></path>
                        <path d="M34.1756068,0.71622748 L44.0615263,10.6021469" id="Path-2-Copy-2" transform="translate(39.118567, 5.659187) scale(-1, 1) translate(-39.118567, -5.659187) "></path>
                        <path d="M31.8454732,20.1346604 L13.2044047,20.1346604" id="Path-2-Copy-3"></path>
                    </g>
                </g>
                <g id="search-copy" transform="translate(72.168960, 136.225269)" fill-rule="nonzero">
                    <path d="M76.2009575,83.5168826 L79.3325139,86.6496835 L82.9937121,90.291717 L84.4044307,91.7126402 C87.5096155,91.5676289 89.4630565,91.0939878 90.2647537,90.291717 C91.066451,89.4894461 91.5480012,87.5263537 91.7094046,84.4024396 L83.5186249,76.1989664 L76.2009575,83.5168826 Z" id="Shape" fill="#5D6D7E"></path>
                    <path d="M99.1584868,84.3539057 L124.367242,109.561417 C126.263549,111.452496 127.440309,114.077558 127.432593,116.964703 C127.432593,119.856825 126.2633,122.479398 124.367242,124.378193 C122.476162,126.266784 119.857323,127.432096 116.965201,127.432096 C114.074323,127.432096 111.458221,126.266784 109.561914,124.371722 L84.3546524,99.1617224 C85.8152002,94.4135034 87.4312545,91.1533752 89.2028154,89.3813377 C90.9743763,87.6093003 94.2929335,85.9334896 99.1584868,84.3539057 Z" id="Shape" fill="#0066CC"></path>
                    <g id="Group">
                        <path d="M84.3534079,99.1617224 L99.1584868,84.3526612 L98.0544028,83.2458395 C97.3878706,82.5768183 96.4766778,82.1703781 95.4636883,82.1703781 C94.4442275,82.1703781 93.5305458,82.5750761 92.8704848,83.2408616 L83.2428528,92.8734715 C82.5815473,93.5297991 82.1686358,94.4434808 82.1686358,95.464186 C82.1686358,96.4697088 82.5808006,97.3948396 83.2428528,98.047185 L84.3534079,99.1617224 Z" id="Shape" fill="#004D99"></path>
                        <path d="M0,47.3297594 C0,21.1946288 21.1913932,0.000746675352 47.3317506,0.000746675352 C73.4745969,0.000746675352 94.6647456,21.1958732 94.6647456,47.3297594 C94.6647456,73.4726058 73.472108,94.6627545 47.3317506,94.6689768 C21.1913932,94.6627545 0,73.4718591 0,47.3297594 Z M47.3317506,86.1623534 C68.7730311,86.1623534 86.1603623,68.7817423 86.1603623,47.3297594 C86.1603623,25.8937057 68.7722844,8.50239224 47.3317506,8.50239224 C25.8912167,8.50239224 8.50114778,25.8937057 8.50114778,47.3297594 C8.50114778,68.7804979 25.8867367,86.1623534 47.3317506,86.1623534 Z" id="Combined-Shape" fill="#34495E"></path>
                    </g>
                    <g id="Group" transform="translate(60.191265, 37.810647)" fill="#8EBEED">
                        <path d="M18.8230752,2.89874366 C18.6408864,2.62546048 18.4031948,2.37183975 18.1426051,2.15580168 C16.6726502,0.953405472 14.5172474,1.18736375 13.3287891,2.65607417 C9.83086395,6.95045301 7.42358261,12.1027618 6.3608147,17.5860967 C5.10366229,24.0985992 5.76123439,30.76641 8.25836566,36.8762056 C8.98612523,38.6373638 10.9892063,39.4644312 12.7364266,38.7443873 C14.4886248,38.0345479 15.3234078,36.0389336 14.6058528,34.2777753 C12.6147186,29.4054698 12.0980192,24.0844123 13.1092665,18.8865563 C13.9363339,14.5092965 15.8592719,10.3995954 18.6493488,6.97235549 C19.6195289,5.77916827 19.6451648,4.10487324 18.8230752,2.89874366 Z" id="Shape" transform="translate(12.574733, 20.194728) rotate(-164.000000) translate(-12.574733, -20.194728) "></path>
                    </g>
                </g>
                <g id="Group-10" transform="translate(102.223792, 45.737445) rotate(45.000000) translate(-102.223792, -45.737445) translate(99.723792, 43.237445)" stroke="#004080" stroke-linecap="round" stroke-linejoin="round" stroke-width="2">
                    <path d="M0.229153337,0.0508141879 L4.63257729,4.45423814" id="Path-2"></path>
                    <path d="M0.229153337,0.0508141879 L4.63257729,4.45423814" id="Path-2" transform="translate(2.430865, 2.252526) scale(-1, 1) translate(-2.430865, -2.252526) "></path>
                </g>
                <circle id="Oval-8" fill="#8EBEED" opacity="0.4" cx="132.995924" cy="28.676596" r="8"></circle>
                <circle id="Oval-8-Copy-2" fill="#455B71" opacity="0.2" cx="114.869782" cy="3.13021846" r="3.13021846"></circle>
                <circle id="Oval-8-Copy" stroke="#004D99" cx="139.75344" cy="34.2651518" r="3.58855585"></circle>
            </g>
        </g>
    </g>
</svg>

<?xml version="1.0" encoding="UTF-8" standalone="no"?>
<svg
   width="152.86342"
   height="213.41756"
   viewBox="0 0 152.86342 213.41756"
   version="1.1"
   id="svg46"
   sodipodi:docname="serp_no_results.svg"
   inkscape:version="1.2 (dc2aedaf03, 2022-05-15)"
   xmlns:inkscape="http://www.inkscape.org/namespaces/inkscape"
   xmlns:sodipodi="http://sodipodi.sourceforge.net/DTD/sodipodi-0.dtd"
   xmlns="http://www.w3.org/2000/svg"
   xmlns:svg="http://www.w3.org/2000/svg"
   xmlns:rdf="http://www.w3.org/1999/02/22-rdf-syntax-ns#"
   xmlns:cc="http://creativecommons.org/ns#"
   xmlns:dc="http://purl.org/dc/elements/1.1/">
  <sodipodi:namedview
     id="namedview48"
     pagecolor="#ffffff"
     bordercolor="#666666"
     borderopacity="1.0"
     inkscape:showpageshadow="2"
     inkscape:pageopacity="0.0"
     inkscape:pagecheckerboard="0"
     inkscape:deskcolor="#d1d1d1"
     showgrid="false"
     inkscape:zoom="2.9621212"
     inkscape:cx="-77.647059"
     inkscape:cy="152.25575"
     inkscape:window-width="1920"
     inkscape:window-height="1011"
     inkscape:window-x="0"
     inkscape:window-y="0"
     inkscape:window-maximized="1"
     inkscape:current-layer="it_dev_serp_no-result" />
  <!-- Generator: Sketch 51 (57462) - http://www.bohemiancoding.com/sketch -->
  <title
     id="title2">Group 11</title>
  <desc
     id="desc4">Created with Sketch.</desc>
  <defs
     id="defs6" />
  <g
     id="–-Landing-page-e-cerca-✓"
     stroke="none"
     stroke-width="1"
     fill="none"
     fill-rule="evenodd"
     transform="translate(-30.860617,-17.487732)">
    <g
       id="it_dev_serp_no-result"
       transform="translate(-426,-379)">
      <rect
         fill="#ffffff"
         x="135.12804"
         y="207.59906"
         width="1400"
         height="1992"
         id="rect8" />
      <g
         id="Group-11"
         transform="translate(426,379)">
        <path
           d="m 72.341948,113.48887 v 48.58911 l 14,8 V 113.48887 L 126.78823,68.82505 c 1.48287,-1.637496 1.35752,-4.167052 -0.27998,-5.649922 -0.7356,-0.666142 -1.69257,-1.035051 -2.68497,-1.035051 H 34.860617 c -2.209139,0 -4,1.790861 -4,4 0,0.992401 0.368909,1.949368 1.035051,2.684973 z"
           id="Combined-Shape"
           fill="#00c5ca" />
        <path
           d="M 83.546078,104.92256 106.23877,82.229866"
           id="Line-3"
           stroke="#65dde0"
           stroke-width="4"
           stroke-linecap="round"
           stroke-linejoin="round" />
        <g
           id="search-copy"
           transform="translate(56.291403,103.47319)"
           fill-rule="nonzero">
          <path
             d="m 76.200957,83.516883 3.131557,3.1328 3.661198,3.642034 1.410719,1.420923 c 3.105184,-0.145011 5.058625,-0.618652 5.860323,-1.420923 0.801697,-0.802271 1.283247,-2.765363 1.444651,-5.889277 l -8.19078,-8.203474 z"
             id="Shape"
             fill="#5d6d7e" />
          <path
             d="m 99.158487,84.353906 25.208753,25.207514 c 1.89631,1.89108 3.07307,4.51614 3.06535,7.40328 0,2.89213 -1.16929,5.5147 -3.06535,7.41349 -1.89108,1.88859 -4.50992,3.05391 -7.40204,3.05391 -2.89088,0 -5.50698,-1.16532 -7.40329,-3.06038 L 84.354652,99.161722 c 1.460548,-4.748219 3.076602,-8.008347 4.848163,-9.780384 1.771561,-1.772038 5.090119,-3.447848 9.955672,-5.027432 z"
             id="path23"
             fill="#0066cc" />
          <g
             id="Group">
            <path
               d="M 84.353408,99.161722 99.158487,84.352661 98.054403,83.24584 c -0.666532,-0.669022 -1.577725,-1.075462 -2.590715,-1.075462 -1.019461,0 -1.933142,0.404698 -2.593203,1.070484 l -9.627632,9.632609 c -0.661306,0.656328 -1.074217,1.57001 -1.074217,2.590715 0,1.005523 0.412165,1.930654 1.074217,2.582999 z"
               id="path25"
               fill="#004d99" />
            <path
               d="M 0,47.329759 C 0,21.194629 21.191393,7.4667535e-4 47.331751,7.4667535e-4 c 26.142846,0 47.332995,21.19512632465 47.332995,47.32901232465 0,26.142847 -21.192638,47.332996 -47.332995,47.339218 C 21.191393,94.662755 0,73.471859 0,47.329759 Z m 47.331751,38.832594 c 21.44128,0 38.828611,-17.380611 38.828611,-38.832594 0,-21.436053 -17.388078,-38.8273668 -38.828611,-38.8273668 -21.440534,0 -38.8306032,17.3913138 -38.8306032,38.8273668 0,21.450739 17.3855892,38.832594 38.8306032,38.832594 z"
               id="path27"
               fill="#34495e" />
          </g>
          <g
             id="g32"
             transform="translate(60.191265,37.810647)"
             fill="#8ebeed">
            <path
               d="M 18.823075,2.8987437 C 18.640886,2.6254605 18.403195,2.3718398 18.142605,2.1558017 16.67265,0.95340547 14.517247,1.1873637 13.328789,2.6560742 9.830864,6.950453 7.4235826,12.102762 6.3608147,17.586097 5.1036623,24.098599 5.7612344,30.76641 8.2583657,36.876206 c 0.7277595,1.761158 2.7308403,2.588225 4.4780613,1.868181 1.752198,-0.709839 2.586981,-2.705453 1.869426,-4.466612 -1.991134,-4.872305 -2.507834,-10.193363 -1.496586,-15.391219 0.827067,-4.377259 2.750005,-8.486961 5.540082,-11.9142005 0.97018,-1.1931872 0.995816,-2.8674823 0.173726,-4.0736118 z"
               id="path30"
               transform="rotate(-164,12.574733,20.194728)" />
          </g>
        </g>
        <g
           id="Group-10"
           transform="rotate(45,-21.817779,108.11311)"
           stroke="#004080"
           stroke-linecap="round"
           stroke-linejoin="round"
           stroke-width="2">
          <path
             d="M 0.22915334,0.05081419 4.6325773,4.4542381"
             id="path35" />
          <path
             d="M 0.22915334,0.05081419 4.6325773,4.4542381"
             id="path37"
             transform="matrix(-1,0,0,1,4.86173,0)" />
        </g>
        <circle
           id="Oval-8"
           fill="#8ebeed"
           opacity="0.4"
           cx="111.89355"
           cy="50.132397"
           r="8" />
        <circle
           id="Oval-8-Copy-2"
           fill="#455b71"
           opacity="0.2"
           cx="96.875656"
           cy="20.61795"
           r="3.1302185" />
        <circle
           id="Oval-8-Copy"
           stroke="#004d99"
           cx="118.65105"
           cy="55.720955"
           r="3.5885558" />
      </g>
    </g>
  </g>
  <metadata
     id="metadata264">
    <rdf:RDF>
      <cc:Work
         rdf:about="">
        <dc:title>Group 11</dc:title>
      </cc:Work>
    </rdf:RDF>
  </metadata>
</svg>
